X:1
T:Violin Caprice No. 15 in E Minor
T:Violin Caprice No. 15 in E Minor
T:Op. 1, No. 15
T:Niccolò Paganini
C:Niccolò Paganini
L:1/8
Q:1/4=60
M:6/8
K:G
V:1 treble nm="Violin" snm="Vln."
V:1
"^Posato"!p!"^stacc." (.[Ee].[Ff]) | (.[Gg]>.[Bb].[Aa] .[Gg].[^D^d].[Ee]) | %2
 .[Ff]!f!([^A,^A][B,B]) z!p! .[Ff].[Gg] | (.[Aa]>.[cc'].[Bb] .[Aa].[^E^e].[Ff]) | %4
 .[Bb]!f!([^D^d][Ee]) z!p! [ee'][=d=d'] | [cc']>!f![^G^g][Aa] [Ff]!p![dd'][cc'] | %6
 [Bb]>!f![Ff][Gg] [Ee]"_dim."[cc'][Bb] | [^A^a]>[Gg][Ff] [Ee][Cc]!p![^A,^A] | %8
 [B,B]!f!([^A^a][Bb]) z!p! (e/4g/4b/4).e'/4 (f/4=a/4^d'/4).f'/4 | %9
 (g/4b/4e'/4).g'/4 (b/4e'/4g'/4).b'/4 (a/4^d'/4f'/4).a'/4 (g/4b/4e'/4).g'/4 (^d/4f/4b/4).d'/4 (e/4g/4b/4).e'/4 | %10
 (f/4b/4^d'/4).f'/4!f! ([^A^a][Bb]) z!p! (f/4b/4d'/4).f'/4 (g/4b/4e'/4).g'/4 | %11
 (a/4c'/4f'/4).a'/4 (c'/4f'/4a'/4).c''/4 (b/4e'/4g'/4).b'/4 (a/4c'/4f'/4).a'/4 (^e/4^g/4b/4).^e'/4 (f/4a/4^d'/4).f'/4 | %12
 (b/4e'/4g'/4).b'/4!f! ([^d^d'][ee']) z!p!!8va(! (e'/4g'/4b'/4).e''/4 (=d'/4^g'/4b'/4).d''/4 | %13
 (c'/4e'/4a'/4).c''/4!f! (^g/4b/4e'/4).^g'/4 (a/4c'/4e'/4).a'/4 (f/4a/4d'/4).f'/4!p! (d'/4f'/4a'/4).d''/4 (c'/4f'/4a'/4).c''/4 | %14
 (b/4d'/4g'/4).b'/4!f! (f/4a/4d'/4).f'/4 (g/4b/4d'/4).g'/4 (e/4g/4c'/4).e'/4!p! (c'/4e'/4g'/4).c''/4 (b/4e'/4g'/4).b'/4 | %15
 (a/4c'/4f'/4).a'/4!8va)!!f! (A,/4C/4E/4).A/4 (^A,/4^C/4E/4).G/4 (B,/4E/4G/4).B/4!8va(! (b/4e'/4g'/4).b'/4!8va)! (B,/4^D/4F/4).B/4 | %16
 E/4b'/4g'/4e'/4 b/4e'/4b/4g/4 e/4b/4g/4e/4 B([^a^a'][bb']) | %17
 E/4b/4g/4^d/4 e/4b/4g/4e'/4 b/4g'/4^d'/4e'/4 b'[^A,^A][B,B] | [EBe][EBg][EBb] [EBe]2 z!fine! || %19
!f! [G,DBg-]g/(.b/4.a/4.g/4.f/4.e/4.d/4 .c/4.B/4.A/4.G/4.F/4.E/4.D/4.C/4.B,/4.D/4.C/4.A,/4) | %20
 (G,/4G/4).A/4.B/4 .c/4.d/4.e/4.f/4 .g/4.d/4.b/4.g/4!8va(! .d'/4.b/4.g'/4.d'/4 .b'/4.g'/4.d''/4.b'/4 g''/!8va)!(G,/ | %21
 [Dfd']3/2)(.f'/4.e'/4 .d'/4.^c'/4.b/4.a/4 .g/4.f/4.e/4.d/4 .^c/4.B/4.A/4.G/4 .F/4.A/4.G/4.E/4) | %22
 D/.E/4.F/4 .G/4.A/4.B/4.^c/4 .d/4.A/4.f/4.d/4 .a/4.f/4.d'/4.a/4 .f'/4.d'/4.a'/4.f'/4 d''/D/ | %23
 [Bg]/(.B,/4.C/4.D/4.B,/4.C/4.A,/4) .G,/(.[bd']/ .[ac']/)(.F/4.G/4.A/4.F/4.G/4.E/4) .D/(.[ac']/ | %24
 .[gb]/)(.B,/4.C/4.D/4.B,/4.C/4.A,/4) .G,/(.[bd']/ .[ac']/)(.F/4.G/4.A/4.F/4.G/4.E/4) .D/(.[ac']/ | %25
 .[gb]/)(.B,/4.C/4.D/4.B,/4.C/4.A,/4) .G,/(.[gb]/ .[e^c']/)(.^C/4.D/4.E/4.C/4.D/4.B,/4) .A,/[ae']/ | %26
 [af']/D/ [ge']/^A,/ [fd']/B,/ G,/[gb]/ =A,/[fa]/ A,/[e^c']/ | %27
 [Ddf']/d'/4a/4 f/4a/4d/4f/4 A/4d/4F/4A/4 D z z | %28
 [Dca]3/2(.c'/4.b/4.a/4.g/4.f/4.e/4 .^c/4.d/4.e/4.d/4 .=c/4.^G/4.A/4.^E/4 .F/4.^C/4.D/4.=C/4) | %29
 B,/D/4B,/4G/4D/4B/4G/4d/4B/4g/4d/4 b/4g/4d'/4b/4g'/4d'/4b'/4g'/4d'/4b/4g/4d/4 | %30
 [Dca]3/2(.c'/4.b/4.a/4.g/4.f/4.e/4 .^c/4.d/4.e/4.d/4 .=c/4.^G/4.A/4.^E/4 .F/4.^C/4.D/4.=C/4) | %31
 B,/D/4B,/4G/4D/4B/4G/4d/4B/4g/4d/4 b/4g/4d'/4b/4g'/4d'/4b'/4g'/4d'/4b/4g/4d/4 | %32
 [ec']/(.E/4.F/4.G/4.E/4.F/4.D/4) .C/(.[ec']/ .[fa]/)(.F/4.G/4.A/4.F/4.G/4.E/4) .D/(.[fd']/ | %33
 .[gb]/)(.G/4.A/4.B/4.G/4.A/4.F/4) .E/(.[ge']/ .[ac']/)(.A/4.B/4.c/4.A/4.B/4.G/4) .F/[af']/ | %34
 [bg']/G/ [ge']/E/ [ec']/C/ [ca]/A,/ [Af]/D/ [fd']/F/ | %35
 G,([^c^c'][dd']) D/!p![=c'f']/[c'a']/D/[af']/D/ | G,!f!([^c^c'][dd']) D/!p![=cf]/[ca]/D/[Af]/D/ | %37
 (G,!f![Ff]).[Gg] G,!D.C.! |] %38

